X: 321
T: Young Scottie
R: Jig
C: Charles F Sherrit
R: jig
I: scale 0.9
M: 6/8
L: 1/8
P: Play ABCB
K: G
"G"G2G G2B | "D7"AFD DEF | "G"G2B "Am"d2B | "G/B"def g2d |\
"C"e2c cde | "G/B"d2B GAB | "Am"c2B "G/B"A2G | "C"GFE "D7"DEF |]
"G"G2G G2B | "D7"AFD DEF | "G"G2B "Am"d2B | "G/B"def g2d |\
"C"e2c gfe | "G/B"edc BAG | "Am"AcA "D7"DEF | "G"G3 G2 |]
"Em"B2e e2f | g3 gfe | "D"f2B agf | "Em"e3 e2d |\
"D"A2d d2e | f3 f2g | "Em"a2A "A7"gfe | "D"ded cBA |]
"G"G2G G2B | "D7"AFD DEF | "G"G2B "Am"d2B | "G/B"def g2d |\
"C"e2c gfe | "G/B"edc "Em"BAG | "Am"AcA "D7"DEF | "G"G3 G2 |]

%%newpage
%%textfont * 14
%%begintext justify
%%32 Bar Jigs
%%endtext
